src/assets/outline/AlignBottom.svg

<svg width="24" height="24" viewBox="0 0 24 24"  xmlns="http://www.w3.org/2000/svg">
<path d="M17.0298 19.7496H15.9898C13.9798 19.7496 13.0098 18.8196 13.0098 16.8996V5.09961C13.0098 4.68961 13.3498 4.34961 13.7598 4.34961C14.1698 4.34961 14.5098 4.68961 14.5098 5.09961V16.8996C14.5098 17.9096 14.7198 18.2496 15.9898 18.2496H17.0298C18.2998 18.2496 18.5098 17.9096 18.5098 16.8996V5.09961C18.5098 4.68961 18.8498 4.34961 19.2598 4.34961C19.6698 4.34961 20.0098 4.68961 20.0098 5.09961V16.8996C20.0098 18.8196 19.0398 19.7496 17.0298 19.7496Z" />
<path d="M8.52977 14.7496H7.48977C5.47977 14.7496 4.50977 13.8196 4.50977 11.8996V5.09961C4.50977 4.68961 4.84977 4.34961 5.25977 4.34961C5.66977 4.34961 6.00977 4.68961 6.00977 5.09961V11.8996C6.00977 12.9096 6.21977 13.2496 7.48977 13.2496H8.52977C9.79977 13.2496 10.0098 12.9096 10.0098 11.8996V5.09961C10.0098 4.68961 10.3498 4.34961 10.7598 4.34961C11.1698 4.34961 11.5098 4.68961 11.5098 5.09961V11.8996C11.5098 13.8196 10.5398 14.7496 8.52977 14.7496Z" />
<path d="M22 5.75H2C1.58 5.75 1.25 5.41 1.25 5C1.25 4.59 1.58 4.25 2 4.25H22C22.41 4.25 22.75 4.59 22.75 5C22.75 5.41 22.42 5.75 22 5.75Z" />
</svg>

<?xml version="1.0" encoding="UTF-8"?>
<svg width="24" height="24" viewBox="0 0 24 24" xmlns="http://www.w3.org/2000/svg">
 <path d="m17.03 19.75h-1.04c-2.01 0-2.98-0.93-2.98-2.85v-11.8c0-0.41 0.34-0.75 0.75-0.75s0.75 0.34 0.75 0.75v11.8c0 1.01 0.21 1.35 1.48 1.35h1.04c1.27 0 1.48-0.34 1.48-1.35v-11.8c0-0.41 0.34-0.75 0.75-0.75s0.75 0.34 0.75 0.75v11.8c0 1.92-0.97 2.85-2.98 2.85z"/>
 <path d="m8.5298 14.75h-1.04c-2.01 0-2.98-0.93-2.98-2.85v-6.8c0-0.41 0.34-0.75 0.75-0.75s0.75 0.34 0.75 0.75v6.8c0 1.01 0.21 1.35 1.48 1.35h1.04c1.27 0 1.48-0.34 1.48-1.35v-6.8c0-0.41 0.34-0.75 0.75-0.75s0.75 0.34 0.75 0.75v6.8c0 1.92-0.97 2.85-2.98 2.85z"/>
 <path d="m22 5.75h-20c-0.42 0-0.75-0.34-0.75-0.75s0.33-0.75 0.75-0.75h20c0.41 0 0.75 0.34 0.75 0.75s-0.33 0.75-0.75 0.75z"/>
</svg>
